static/img/kroki/afe762cc92e0f1bf6fdc815c3ba57915.svg

<?xml version="1.0" encoding="us-ascii" standalone="no"?><svg xmlns="http://www.w3.org/2000/svg" xmlns:xlink="http://www.w3.org/1999/xlink" contentStyleType="text/css" height="741px" preserveAspectRatio="none" style="width:391px;height:741px;" version="1.1" viewBox="0 0 391 741" width="391px" zoomAndPan="magnify"><defs/><g><!--class digitalocean_domain--><g id="elem_digitalocean_domain"><rect codeLine="22" fill="#3D176E" height="100.3828" id="digitalocean_domain" rx="2.5" ry="2.5" style="stroke:#000D19;stroke-width:0.5;" width="215" x="113" y="633.85"/><ellipse cx="128" cy="653.7445" fill="#ADD1B2" rx="11" ry="11" style="stroke:#181818;stroke-width:1.0;"/><path d="M130.9688,659.3852 Q130.3906,659.682 129.75,659.8227 Q129.1094,659.9789 128.4063,659.9789 Q125.9063,659.9789 124.5781,658.3383 Q123.2656,656.682 123.2656,653.557 Q123.2656,650.432 124.5781,648.7758 Q125.9063,647.1195 128.4063,647.1195 Q129.1094,647.1195 129.75,647.2758 Q130.4063,647.432 130.9688,647.7289 L130.9688,650.4477 Q130.3438,649.8695 129.75,649.6039 Q129.1563,649.3227 128.5313,649.3227 Q127.1875,649.3227 126.5,650.4008 Q125.8125,651.4633 125.8125,653.557 Q125.8125,655.6508 126.5,656.7289 Q127.1875,657.7914 128.5313,657.7914 Q129.1563,657.7914 129.75,657.5258 Q130.3438,657.2445 130.9688,656.6664 L130.9688,659.3852 Z " fill="#000000"/><text fill="#D9B8FF" font-family="Helvetica" font-size="17" lengthAdjust="spacing" textLength="173" x="147" y="659.6298">digitalocean_domain</text><line style="stroke:#000D19;stroke-width:0.5;" x1="114" x2="327" y1="673.6391" y2="673.6391"/><text fill="#D9B8FF" font-family="sans-serif" font-size="14" font-weight="bold" lengthAdjust="spacing" textLength="16" x="124" y="695.6342">ttl</text><text fill="#D9B8FF" font-family="sans-serif" font-size="14" lengthAdjust="spacing" textLength="44" x="140" y="695.6342">: int64</text><text fill="#D9B8FF" font-family="sans-serif" font-size="14" font-weight="bold" lengthAdjust="spacing" textLength="70" x="124" y="721.9311">zone_file</text><text fill="#D9B8FF" font-family="sans-serif" font-size="14" lengthAdjust="spacing" textLength="48" x="194" y="721.9311">: string</text></g><!--class digitalocean_resource--><g id="elem_digitalocean_resource"><rect codeLine="26" fill="#3D176E" height="74.0859" id="digitalocean_resource" rx="2.5" ry="2.5" style="stroke:#000D19;stroke-width:0.5;" width="223" x="7" y="438.76"/><ellipse cx="22" cy="458.6545" fill="#ADD1B2" rx="11" ry="11" style="stroke:#181818;stroke-width:1.0;"/><path d="M24.9688,464.2952 Q24.3906,464.592 23.75,464.7327 Q23.1094,464.8889 22.4063,464.8889 Q19.9063,464.8889 18.5781,463.2483 Q17.2656,461.592 17.2656,458.467 Q17.2656,455.342 18.5781,453.6858 Q19.9063,452.0295 22.4063,452.0295 Q23.1094,452.0295 23.75,452.1858 Q24.4063,452.342 24.9688,452.6389 L24.9688,455.3577 Q24.3438,454.7795 23.75,454.5139 Q23.1563,454.2327 22.5313,454.2327 Q21.1875,454.2327 20.5,455.3108 Q19.8125,456.3733 19.8125,458.467 Q19.8125,460.5608 20.5,461.6389 Q21.1875,462.7014 22.5313,462.7014 Q23.1563,462.7014 23.75,462.4358 Q24.3438,462.1545 24.9688,461.5764 L24.9688,464.2952 Z " fill="#000000"/><text fill="#D9B8FF" font-family="Helvetica" font-size="17" lengthAdjust="spacing" textLength="181" x="41" y="464.5398">digitalocean_resource</text><line style="stroke:#000D19;stroke-width:0.5;" x1="8" x2="229" y1="478.5491" y2="478.5491"/><text fill="#D9B8FF" font-family="sans-serif" font-size="14" font-weight="bold" lengthAdjust="spacing" textLength="27" x="18" y="500.5442">urn</text><text fill="#D9B8FF" font-family="sans-serif" font-size="14" lengthAdjust="spacing" textLength="48" x="45" y="500.5442">: string</text></g><!--class dns_zone--><g id="elem_dns_zone"><rect codeLine="29" fill="#3D176E" height="39.7891" id="dns_zone" rx="2.5" ry="2.5" style="stroke:#000D19;stroke-width:0.5;" width="119" x="265" y="455.91"/><ellipse cx="280" cy="475.8045" fill="#ADD1B2" rx="11" ry="11" style="stroke:#181818;stroke-width:1.0;"/><path d="M282.9688,481.4452 Q282.3906,481.742 281.75,481.8827 Q281.1094,482.0389 280.4063,482.0389 Q277.9063,482.0389 276.5781,480.3983 Q275.2656,478.742 275.2656,475.617 Q275.2656,472.492 276.5781,470.8358 Q277.9063,469.1795 280.4063,469.1795 Q281.1094,469.1795 281.75,469.3358 Q282.4063,469.492 282.9688,469.7889 L282.9688,472.5077 Q282.3438,471.9295 281.75,471.6639 Q281.1563,471.3827 280.5313,471.3827 Q279.1875,471.3827 278.5,472.4608 Q277.8125,473.5233 277.8125,475.617 Q277.8125,477.7108 278.5,478.7889 Q279.1875,479.8514 280.5313,479.8514 Q281.1563,479.8514 281.75,479.5858 Q282.3438,479.3045 282.9688,478.7264 L282.9688,481.4452 Z " fill="#000000"/><text fill="#D9B8FF" font-family="Helvetica" font-size="17" lengthAdjust="spacing" textLength="77" x="299" y="481.6898">dns_zone</text></g><!--class resource--><g id="elem_resource"><rect codeLine="31" fill="#3D176E" height="310.7578" id="resource" rx="2.5" ry="2.5" style="stroke:#000D19;stroke-width:0.5;" width="227" x="107" y="7"/><ellipse cx="175.75" cy="26.8945" fill="#ADD1B2" rx="11" ry="11" style="stroke:#181818;stroke-width:1.0;"/><path d="M178.7188,32.5352 Q178.1406,32.832 177.5,32.9727 Q176.8594,33.1289 176.1563,33.1289 Q173.6563,33.1289 172.3281,31.4883 Q171.0156,29.832 171.0156,26.707 Q171.0156,23.582 172.3281,21.9258 Q173.6563,20.2695 176.1563,20.2695 Q176.8594,20.2695 177.5,20.4258 Q178.1563,20.582 178.7188,20.8789 L178.7188,23.5977 Q178.0938,23.0195 177.5,22.7539 Q176.9063,22.4727 176.2813,22.4727 Q174.9375,22.4727 174.25,23.5508 Q173.5625,24.6133 173.5625,26.707 Q173.5625,28.8008 174.25,29.8789 Q174.9375,30.9414 176.2813,30.9414 Q176.9063,30.9414 177.5,30.6758 Q178.0938,30.3945 178.7188,29.8164 L178.7188,32.5352 Z " fill="#000000"/><text fill="#D9B8FF" font-family="Helvetica" font-size="17" lengthAdjust="spacing" textLength="71" x="201.25" y="32.7798">resource</text><line style="stroke:#000D19;stroke-width:0.5;" x1="108" x2="333" y1="46.7891" y2="46.7891"/><text fill="#D9B8FF" font-family="sans-serif" font-size="14" font-weight="bold" lengthAdjust="spacing" textLength="29" x="118" y="68.7842">age</text><text fill="#D9B8FF" font-family="sans-serif" font-size="14" lengthAdjust="spacing" textLength="66" x="147" y="68.7842">: duration</text><text fill="#D9B8FF" font-family="sans-serif" font-size="14" font-weight="bold" lengthAdjust="spacing" textLength="43" x="118" y="95.0811">atime</text><text fill="#D9B8FF" font-family="sans-serif" font-size="14" lengthAdjust="spacing" textLength="70" x="161" y="95.0811">: datetime</text><text fill="#D9B8FF" font-family="sans-serif" font-size="14" font-weight="bold" lengthAdjust="spacing" textLength="43" x="118" y="121.3779">ctime</text><text fill="#D9B8FF" font-family="sans-serif" font-size="14" lengthAdjust="spacing" textLength="70" x="161" y="121.3779">: datetime</text><text fill="#D9B8FF" font-family="sans-serif" font-size="14" font-weight="bold" lengthAdjust="spacing" textLength="14" x="118" y="147.6748">id</text><text fill="#D9B8FF" font-family="sans-serif" font-size="14" lengthAdjust="spacing" textLength="48" x="132" y="147.6748">: string</text><text fill="#D9B8FF" font-family="sans-serif" font-size="14" font-weight="bold" lengthAdjust="spacing" textLength="33" x="118" y="173.9717">kind</text><text fill="#D9B8FF" font-family="sans-serif" font-size="14" lengthAdjust="spacing" textLength="48" x="151" y="173.9717">: string</text><text fill="#D9B8FF" font-family="sans-serif" font-size="14" font-weight="bold" lengthAdjust="spacing" textLength="90" x="118" y="200.2686">last_access</text><text fill="#D9B8FF" font-family="sans-serif" font-size="14" lengthAdjust="spacing" textLength="66" x="208" y="200.2686">: duration</text><text fill="#D9B8FF" font-family="sans-serif" font-size="14" font-weight="bold" lengthAdjust="spacing" textLength="90" x="118" y="226.5654">last_update</text><text fill="#D9B8FF" font-family="sans-serif" font-size="14" lengthAdjust="spacing" textLength="66" x="208" y="226.5654">: duration</text><text fill="#D9B8FF" font-family="sans-serif" font-size="14" font-weight="bold" lengthAdjust="spacing" textLength="48" x="118" y="252.8623">mtime</text><text fill="#D9B8FF" font-family="sans-serif" font-size="14" lengthAdjust="spacing" textLength="70" x="166" y="252.8623">: datetime</text><text fill="#D9B8FF" font-family="sans-serif" font-size="14" font-weight="bold" lengthAdjust="spacing" textLength="43" x="118" y="279.1592">name</text><text fill="#D9B8FF" font-family="sans-serif" font-size="14" lengthAdjust="spacing" textLength="48" x="161" y="279.1592">: string</text><text fill="#D9B8FF" font-family="sans-serif" font-size="14" font-weight="bold" lengthAdjust="spacing" textLength="34" x="118" y="305.4561">tags</text><text fill="#D9B8FF" font-family="sans-serif" font-size="14" lengthAdjust="spacing" textLength="171" x="152" y="305.4561">: dictionary[string, string]</text></g><!--reverse link digitalocean_resource to digitalocean_domain--><g id="link_digitalocean_resource_digitalocean_domain"><path codeLine="43" d="M144.4803,529.3343 C161.0103,562.7543 177.66,596.42 195.98,633.47 " fill="none" id="digitalocean_resource-backto-digitalocean_domain" style="stroke:#FFAF37;stroke-width:2.0;"/><polygon fill="none" points="136.5,513.2,139.1022,531.9944,149.8583,526.6742,136.5,513.2" style="stroke:#FFAF37;stroke-width:2.0;"/></g><!--reverse link dns_zone to digitalocean_domain--><g id="link_dns_zone_digitalocean_domain"><path codeLine="44" d="M306.7942,511.9116 C291.1542,542.9216 267.79,589.26 245.49,633.48 " fill="none" id="dns_zone-backto-digitalocean_domain" style="stroke:#FFAF37;stroke-width:2.0;"/><polygon fill="none" points="314.9,495.84,301.437,509.2097,312.1514,514.6135,314.9,495.84" style="stroke:#FFAF37;stroke-width:2.0;"/></g><!--reverse link resource to digitalocean_resource--><g id="link_resource_digitalocean_resource"><path codeLine="45" d="M164.1969,335.2857 C149.4469,380.3157 140.27,408.35 130.39,438.52 " fill="none" id="resource-backto-digitalocean_resource" style="stroke:#FFAF37;stroke-width:2.0;"/><polygon fill="none" points="169.8,318.18,158.495,333.418,169.8988,337.1534,169.8,318.18" style="stroke:#FFAF37;stroke-width:2.0;"/></g><!--reverse link resource to dns_zone--><g id="link_resource_dns_zone"><path codeLine="46" d="M277.9015,335.2532 C296.1515,389.9032 308.75,427.63 318.1,455.65 " fill="none" id="resource-backto-dns_zone" style="stroke:#FFAF37;stroke-width:2.0;"/><polygon fill="none" points="272.2,318.18,272.2104,337.1537,283.5925,333.3527,272.2,318.18" style="stroke:#FFAF37;stroke-width:2.0;"/></g><!--SRC=[XPD1Rzf048Nl_8gLShEA14aRGfHBWbIrbwXgSeiYDEoEpGhlB9eTDo9j_tjsCI1Z6tApt_lytkpONbg32jrQDigXMo27GLXPMWE3K_VC_ctcIy_g8iyXlvgqpU-Uv5FW4Hog7rZ-GR4QsiJpqkeLOGZgic4zW5uLx2ioTRmmK8WMaZIeMGaXt8kmNLI2ZM7CT76Jvsso7NfnPSQJQ-nWdWto3XcDHcOyRIEVLfqzzu5uik-enisbFNh1pfYTYYrrTif4D8Ri77Jldvpn5nXZgL3V6jhlUYOcv2FzQGd6loKwXp8qQu8WevVD6cUTK-7qnkIJNlZdALYdpIbZ2ojGUer0S-CTM59_1racKcRPhR8arr_ZxRiddEUsn2I6-95GCVZV5y4OVCKQjo4LKnzFOPxo8hANZfw2OjjYAWQndf8YrjKQ2ARhgEaUpPf6NPR5RHmBiKlce7NyGreDMwTQfwoMutfw21mU1GiKTQBLwJ7WpKljVTanh_6e_Nkw-pSS3ljUm-2mfzF8kPIzru5siHy0]--></g></svg>

<svg xmlns="http://www.w3.org/2000/svg" width="391" height="741" viewBox="0 0 391 741"><rect width="215" height="100.383" x="113" y="633.85" fill="#3D176E" rx="2.5" ry="2.5" style="stroke:#000d19;stroke-width:.5"/><circle cx="128" cy="653.745" r="11" fill="#ADD1B2" style="stroke:#181818;stroke-width:1"/><path d="M130.969 659.385q-.578.297-1.219.438-.64.156-1.344.156-2.5 0-3.828-1.64-1.312-1.657-1.312-4.782t1.312-4.781q1.328-1.656 3.828-1.656.703 0 1.344.156.656.156 1.219.453v2.719q-.625-.578-1.219-.844-.594-.281-1.219-.281-1.344 0-2.031 1.078-.687 1.062-.687 3.156t.687 3.172q.688 1.062 2.031 1.062.625 0 1.219-.265.594-.281 1.219-.86z"/><text x="147" y="659.63" fill="#D9B8FF" font-family="Helvetica" font-size="17" textLength="173">digitalocean_domain</text><path d="M114 673.639h213" style="stroke:#000d19;stroke-width:.5"/><text x="124" y="695.634" fill="#D9B8FF" font-family="sans-serif" font-size="14" font-weight="bold" textLength="16">ttl</text><text x="140" y="695.634" fill="#D9B8FF" font-family="sans-serif" font-size="14" textLength="44">: int64</text><text x="124" y="721.931" fill="#D9B8FF" font-family="sans-serif" font-size="14" font-weight="bold" textLength="70">zone_file</text><text x="194" y="721.931" fill="#D9B8FF" font-family="sans-serif" font-size="14" textLength="48">: string</text><rect width="223" height="74.086" x="7" y="438.76" fill="#3D176E" rx="2.5" ry="2.5" style="stroke:#000d19;stroke-width:.5"/><circle cx="22" cy="458.654" r="11" fill="#ADD1B2" style="stroke:#181818;stroke-width:1"/><path d="M24.969 464.295q-.578.297-1.219.438-.64.156-1.344.156-2.5 0-3.828-1.64-1.312-1.657-1.312-4.782t1.312-4.781q1.328-1.656 3.828-1.656.703 0 1.344.156.656.156 1.219.453v2.719q-.625-.579-1.219-.844-.594-.281-1.219-.281-1.343 0-2.031 1.078-.687 1.062-.687 3.156t.687 3.172q.688 1.062 2.031 1.062.625 0 1.219-.265.594-.281 1.219-.86z"/><text x="41" y="464.54" fill="#D9B8FF" font-family="Helvetica" font-size="17" textLength="181">digitalocean_resource</text><path d="M8 478.549h221" style="stroke:#000d19;stroke-width:.5"/><text x="18" y="500.544" fill="#D9B8FF" font-family="sans-serif" font-size="14" font-weight="bold" textLength="27">urn</text><text x="45" y="500.544" fill="#D9B8FF" font-family="sans-serif" font-size="14" textLength="48">: string</text><rect width="119" height="39.789" x="265" y="455.91" fill="#3D176E" rx="2.5" ry="2.5" style="stroke:#000d19;stroke-width:.5"/><circle cx="280" cy="475.805" r="11" fill="#ADD1B2" style="stroke:#181818;stroke-width:1"/><path d="M282.969 481.445q-.578.297-1.219.438-.64.156-1.344.156-2.5 0-3.828-1.64-1.312-1.657-1.312-4.782t1.312-4.781q1.328-1.656 3.828-1.656.703 0 1.344.156.656.156 1.219.453v2.719q-.625-.578-1.219-.844-.594-.281-1.219-.281-1.344 0-2.031 1.078-.687 1.062-.687 3.156t.687 3.172q.688 1.062 2.031 1.062.625 0 1.219-.265.594-.281 1.219-.86z"/><text x="299" y="481.69" fill="#D9B8FF" font-family="Helvetica" font-size="17" textLength="77">dns_zone</text><rect width="227" height="310.758" x="107" y="7" fill="#3D176E" rx="2.5" ry="2.5" style="stroke:#000d19;stroke-width:.5"/><circle cx="175.75" cy="26.895" r="11" fill="#ADD1B2" style="stroke:#181818;stroke-width:1"/><path d="M178.719 32.535q-.578.297-1.219.438-.64.156-1.344.156-2.5 0-3.828-1.64-1.312-1.657-1.312-4.782t1.312-4.781q1.328-1.656 3.828-1.656.703 0 1.344.156.656.156 1.219.453v2.719q-.625-.578-1.219-.844-.594-.281-1.219-.281-1.344 0-2.031 1.078-.687 1.062-.687 3.156t.687 3.172q.688 1.062 2.031 1.062.625 0 1.219-.265.594-.281 1.219-.86z"/><text x="201.25" y="32.78" fill="#D9B8FF" font-family="Helvetica" font-size="17" textLength="71">resource</text><path d="M108 46.789h225" style="stroke:#000d19;stroke-width:.5"/><text x="118" y="68.784" fill="#D9B8FF" font-family="sans-serif" font-size="14" font-weight="bold" textLength="29">age</text><text x="147" y="68.784" fill="#D9B8FF" font-family="sans-serif" font-size="14" textLength="66">: duration</text><text x="118" y="95.081" fill="#D9B8FF" font-family="sans-serif" font-size="14" font-weight="bold" textLength="43">atime</text><text x="161" y="95.081" fill="#D9B8FF" font-family="sans-serif" font-size="14" textLength="70">: datetime</text><text x="118" y="121.378" fill="#D9B8FF" font-family="sans-serif" font-size="14" font-weight="bold" textLength="43">ctime</text><text x="161" y="121.378" fill="#D9B8FF" font-family="sans-serif" font-size="14" textLength="70">: datetime</text><text x="118" y="147.675" fill="#D9B8FF" font-family="sans-serif" font-size="14" font-weight="bold" textLength="14">id</text><text x="132" y="147.675" fill="#D9B8FF" font-family="sans-serif" font-size="14" textLength="48">: string</text><text x="118" y="173.972" fill="#D9B8FF" font-family="sans-serif" font-size="14" font-weight="bold" textLength="33">kind</text><text x="151" y="173.972" fill="#D9B8FF" font-family="sans-serif" font-size="14" textLength="48">: string</text><text x="118" y="200.269" fill="#D9B8FF" font-family="sans-serif" font-size="14" font-weight="bold" textLength="90">last_access</text><text x="208" y="200.269" fill="#D9B8FF" font-family="sans-serif" font-size="14" textLength="66">: duration</text><text x="118" y="226.565" fill="#D9B8FF" font-family="sans-serif" font-size="14" font-weight="bold" textLength="90">last_update</text><text x="208" y="226.565" fill="#D9B8FF" font-family="sans-serif" font-size="14" textLength="66">: duration</text><text x="118" y="252.862" fill="#D9B8FF" font-family="sans-serif" font-size="14" font-weight="bold" textLength="48">mtime</text><text x="166" y="252.862" fill="#D9B8FF" font-family="sans-serif" font-size="14" textLength="70">: datetime</text><text x="118" y="279.159" fill="#D9B8FF" font-family="sans-serif" font-size="14" font-weight="bold" textLength="43">name</text><text x="161" y="279.159" fill="#D9B8FF" font-family="sans-serif" font-size="14" textLength="48">: string</text><text x="118" y="305.456" fill="#D9B8FF" font-family="sans-serif" font-size="14" font-weight="bold" textLength="34">tags</text><text x="152" y="305.456" fill="#D9B8FF" font-family="sans-serif" font-size="14" textLength="171">: dictionary[string, string]</text><g fill="none"><path d="M144.48 529.334c16.53 33.42 33.18 67.086 51.5 104.136" style="stroke:#ffaf37;stroke-width:2"/><path d="m136.5 513.2 2.602 18.794 10.756-5.32z" style="stroke:#ffaf37;stroke-width:2"/></g><g fill="none"><path d="M306.794 511.912c-15.64 31.01-39.004 77.348-61.304 121.568" style="stroke:#ffaf37;stroke-width:2"/><path d="m314.9 495.84-13.463 13.37 10.714 5.404z" style="stroke:#ffaf37;stroke-width:2"/></g><path fill="none" d="M164.197 335.286c-14.75 45.03-23.927 73.064-33.807 103.234m39.41-120.34-11.305 15.238 11.404 3.735z" style="stroke:#ffaf37;stroke-width:2"/><g fill="none"><path d="M277.902 335.253c18.25 54.65 30.848 92.377 40.198 120.397" style="stroke:#ffaf37;stroke-width:2"/><path d="m272.2 318.18.01 18.974 11.382-3.801z" style="stroke:#ffaf37;stroke-width:2"/></g></svg>
